svg/weather/dry_fill.svg

<?xml version="1.0" encoding="UTF-8"?>
<svg width="24px" height="24px" viewBox="0 0 24 24" version="1.1" xmlns="http://www.w3.org/2000/svg" xmlns:xlink="http://www.w3.org/1999/xlink">
    <title>dry_fill</title>
    <g id="Icon" stroke="none" stroke-width="1" fill="none" fill-rule="evenodd">
        <g id="Weather" transform="translate(-193.000000, -240.000000)">
            <g id="dry_fill" transform="translate(193.000000, 240.000000)">
                <path d="M24,0 L24,24 L0,24 L0,0 L24,0 Z M12.5935,23.2578 L12.5819,23.2595 L12.5109,23.295 L12.4919,23.2987 L12.4767,23.295 L12.4057,23.2595 C12.3958,23.2564 12.387,23.259 12.3821,23.2649 L12.378,23.2758 L12.3609,23.7031 L12.3659,23.7235 L12.3769,23.7357 L12.4805,23.8097 L12.4953,23.8136 L12.5071,23.8097 L12.6107,23.7357 L12.6233,23.7197 L12.6267,23.7031 L12.6096,23.2758 C12.6076,23.2657 12.601,23.2593 12.5935,23.2578 Z M12.8584,23.1453 L12.8445,23.1473 L12.6598,23.2397 L12.6499,23.2499 L12.6472,23.2611 L12.6651,23.6906 L12.6699,23.7034 L12.6784,23.7105 L12.8793,23.8032 C12.8914,23.8069 12.9022,23.803 12.9078,23.7952 L12.9118,23.7812 L12.8777,23.1665 C12.8753,23.1546 12.8674,23.147 12.8584,23.1453 Z M12.143,23.1473 C12.1332,23.1424 12.1222,23.1453 12.1156,23.1526 L12.1099,23.1665 L12.0758,23.7812 C12.0751,23.7927 12.0828,23.8019 12.0926,23.8046 L12.1083,23.8032 L12.3092,23.7105 L12.3186,23.7024 L12.3225,23.6906 L12.3404,23.2611 L12.3372,23.2485 L12.3278,23.2397 L12.143,23.1473 Z" id="MingCute" fill-rule="nonzero"></path>
                <path d="M17.557,2.6072 C18.3262,2.91487 18.7003,3.78782 18.3926,4.557 L17.5648,6.62655 C17.0145,8.0024 17.1768,9.561 17.9987,10.794 L18.4973,11.5418 C19.8672,13.5967 20.1377,16.1944 19.2205,18.4874 L18.3926,20.557 C18.085,21.3262 17.212,21.7003 16.4428,21.3926 C15.6737,21.085 15.2995,20.212 15.6072,19.4428 L16.435,17.3733 C16.9854,15.9974 16.8231,14.4388 16.0011,13.2059 L15.5026,12.4581 C14.1326,10.4031 13.8621,7.80546 14.7794,5.51238 L15.6072,3.44282 C15.9149,2.67365 16.7878,2.29953 17.557,2.6072 Z M12.557,2.6072 C13.3262,2.91487 13.7003,3.78782 13.3926,4.557 L12.5648,6.62655 C12.0145,8.0024 12.1768,9.561 12.9987,10.794 L13.4973,11.5418 C14.8672,13.5967 15.1377,16.1944 14.2205,18.4874 L13.3926,20.557 C13.085,21.3262 12.212,21.7003 11.4428,21.3926 C10.6737,21.085 10.2995,20.212 10.6072,19.4428 L11.435,17.3733 C11.9854,15.9974 11.8231,14.4388 11.0011,13.2059 L10.5026,12.4581 C9.13262,10.4031 8.86214,7.80546 9.77938,5.51238 L10.6072,3.44282 C10.9149,2.67365 11.7878,2.29953 12.557,2.6072 Z M7.557,2.6072 C8.32618,2.91487 8.7003,3.78782 8.39263,4.557 L7.56481,6.62655 C7.01447,8.0024 7.17675,9.561 7.99873,10.794 L8.49726,11.5418 C9.86721,13.5967 10.1377,16.1944 9.22045,18.4874 L8.39263,20.557 C8.08496,21.3262 7.212,21.7003 6.44283,21.3926 C5.67365,21.085 5.29953,20.212 5.6072,19.4428 L6.43502,17.3733 C6.98536,15.9974 6.82308,14.4388 6.0011,13.2059 L5.50257,12.4581 C4.13262,10.4031 3.86214,7.80546 4.77938,5.51238 L5.6072,3.44282 C5.91487,2.67365 6.78783,2.29953 7.557,2.6072 Z" id="形状" fill="#09244B"></path>
            </g>
        </g>
    </g>
</svg>

<svg xmlns="http://www.w3.org/2000/svg" width="24" height="24"><g fill="none" fill-rule="evenodd"><path d="M24 0v24H0V0h24ZM12.594 23.258l-.012.002-.071.035-.02.004-.014-.004-.071-.036c-.01-.003-.019 0-.024.006l-.004.01-.017.428.005.02.01.013.104.074.015.004.012-.004.104-.074.012-.016.004-.017-.017-.427c-.002-.01-.009-.017-.016-.018Zm.264-.113-.014.002-.184.093-.01.01-.003.011.018.43.005.012.008.008.201.092c.012.004.023 0 .029-.008l.004-.014-.034-.614c-.003-.012-.01-.02-.02-.022Zm-.715.002a.023.023 0 0 0-.027.006l-.006.014-.034.614c0 .012.007.02.017.024l.015-.002.201-.093.01-.008.003-.011.018-.43-.003-.012-.01-.01-.184-.092Z"/><path fill="#09244B" d="M17.557 2.607a1.5 1.5 0 0 1 .836 1.95l-.828 2.07a4.5 4.5 0 0 0 .434 4.167l.498.748a7.5 7.5 0 0 1 .724 6.945l-.828 2.07a1.5 1.5 0 1 1-2.786-1.114l.828-2.07a4.5 4.5 0 0 0-.434-4.167l-.498-.748a7.5 7.5 0 0 1-.724-6.946l.828-2.07a1.5 1.5 0 0 1 1.95-.835Zm-5 0a1.5 1.5 0 0 1 .836 1.95l-.828 2.07a4.5 4.5 0 0 0 .434 4.167l.498.748a7.5 7.5 0 0 1 .723 6.945l-.827 2.07a1.5 1.5 0 1 1-2.786-1.114l.828-2.07a4.5 4.5 0 0 0-.434-4.167l-.498-.748a7.5 7.5 0 0 1-.724-6.946l.828-2.07a1.5 1.5 0 0 1 1.95-.835Zm-5 0a1.5 1.5 0 0 1 .836 1.95l-.828 2.07a4.5 4.5 0 0 0 .434 4.167l.498.748a7.5 7.5 0 0 1 .723 6.945l-.827 2.07a1.5 1.5 0 1 1-2.786-1.114l.828-2.07a4.5 4.5 0 0 0-.434-4.167l-.498-.748a7.5 7.5 0 0 1-.724-6.946l.828-2.07a1.5 1.5 0 0 1 1.95-.835Z"/></g></svg>
